X:10202
T:The Sloe
R:Reel
M:4/4
L:1/8
B:Tuneworks Tunebook (https://www.tuneworks.co.uk/) p2
G:tuneworks
Z:Jon Warbrick, jon.warbrick@googlemail.com
K:D
|: A2 | "D"d2 A2 d2 e2 | f3 e d2 c2 | "G"B2 A2 BcdB | "A"A2 G2 F2 A2 | 
"D"d2 A2 d2e2 | f3 e d2 c2 | "G"B2 A2 B2 c2 | "D"d4 d2 :|
|: A2 |"D"(3BcB A2 F2  A2 | (3BcB A2 F2 dd | "G"d2 cc "A"c2 BB | "D"B2 A2 A2 dd | 
"G"d2 c2 "A"c2 ee | "D"e2 d2 d2 ff | "G"f2 e2 "A"B2 c2 | "D"d4 d2 :|